X: 39697
T: Terminus
R: reel
M: 4/4
K: Ddorian
|:d2Ad B2AB|cBAG A2D2|F2EF GFED|F2EF GAB^c|
d2 Ad B2AB|cBAG A2D2|F2EF GFED|FGE2 D4:|
|:e2de gfed|eAB^c d2de|f2ed c3B|cdBG A4|
d2Ad B2AB|cBAG A2D2|F2EF GFED|FGE2 D4:|

